!!!COM: Matthias Weckmann
!!!OPR: Es ist das Heil uns kommen her
!!!OTL: Quintus Versus.  Canon in disdiapente post semiminimam.
!!!YOR: From "Matthias Weckmann Choralbearbeitungen" edited by Werner Breig
!!!YOR: Baerenreiter Publisher, Kassel, 1979; pp. 18-21.
**kern	**kern	**kern
*CF	*conseq	*guida
*k[]	*k[]	*k[]
*M4/4	*M4/4	*M4/4
=1-	=1-	=1-
1r	4r	8r
.	.	8g
.	8r	4.cc
.	8C	.
.	4.F	.
.	.	16a
.	.	16b
.	.	8cc
.	16D	8dd
.	16E	.
=2	=2	=2
1r	8F	8cc
.	8G	8b
.	8F	8a
.	8E	16b
.	.	16cc
.	8D	8dd
.	16E	8cc
.	16F	.
.	8G	8b
.	8F	8a
=3	=3	=3
1r	8E	4g
.	8D	.
.	4C	8r
.	.	8g
.	8r	4.gg
.	8C	.
.	[4c	.
.	.	16ee
.	.	16ff
=4	=4	=4
1r	8c]	8gg
.	16A	8aa
.	16B-	.
.	8c	8gg
.	8d	8ff
.	8c	8ee
.	8B-	16ff
.	.	16gg
.	8A	8aa
.	16B-	8gg
.	16c	.
=5	=5	=5
1r	8d	8ff
.	8c	8ee
.	8B-	4.dd
.	8A	.
.	4.G	.
.	.	16ee
.	.	16ff
.	.	[4gg
.	16A	.
.	16B-	.
=6	=6	=6
1r	4.c	8gg]
.	.	8ff
.	.	8ee
.	8B-	8dd
.	8A	8cc
.	8G	16dd
.	.	16ee
.	8F	8ff
.	16G	8ee
.	16A	.
=7	=7	=7
1r	8B-	8dd
.	8A	16cc
.	.	16dd
.	8G	8ee
.	16F	8dd
.	16G	.
.	8A	8cc
.	8G	8b
.	8F	8a
.	8E	8g
=8	=8	=8
1r	8D	8f
.	8C	8e
.	8BB-	4d
.	8AA	.
.	4GG	8r
.	.	8d
.	8r	[4dd
.	8GG	.
=9	=9	=9
1G	4.G	8dd]
.	.	16bn
.	.	16cc
.	.	8dd
.	16E	8ee
.	16F	.
.	8G	8dd
.	8A	8cc
.	8G	8b
.	8F	8a
=10	=10	=10
2G	8E	4g
.	8D	.
.	4C	8r
.	.	8G
2G	8r	4.g
.	8CC	.
.	[4C	.
.	.	16f
.	.	16e
=11	=11	=11
2G	8C]	8d
.	16BB-	8d
.	16AA	.
.	8GG	4.dd
.	8GG	.
2B-	4.G	.
.	.	8d
.	.	8g
.	8GG	16f
.	.	16g
=12	=12	=12
2A	8C	8a
.	16BB-	8g
.	16C	.
.	8D	8f
.	8C	16e
.	.	16f
2G	8BB-	8g
.	16AA	8f
.	16BB-	.
.	8C	8e
.	8BB-	16d
.	.	16e
=13	=13	=13
1F	8AA	4.f
.	16GG	.
.	16AA	.
.	4.BB-	.
.	.	8f
.	.	4.f
.	8BB-	.
.	[4BB-	.
.	.	8f
=14	=14	=14
1r	8BB-]	4.ff
.	8BB-	.
.	4.B-	.
.	.	16dd
.	.	16ee
.	.	8ff
.	16G	8gg
.	16A	.
.	8B-	8ff
.	8c	8ee
=15	=15	=15
1G	8B-	8dd
.	8A	8cc
.	8G	8bn
.	8F	8a
.	8E	8g
.	8D	8f#
.	8C	[4g
.	8BBn	.
=16	=16	=16
2E	4.C	8g]
.	.	8g
.	.	4.g
.	8C	.
2C	4.C	.
.	.	16e
.	.	16fn
.	.	8g
.	16AA	8a
.	16BB-	.
=17	=17	=17
2E	8C	8g
.	8D	8f
.	8C	8e
.	8BB-	16f
.	.	16g
2F	8AA	8a
.	16BB-	8g
.	16C	.
.	8D	8f
.	8C	16g
.	.	16a
=18	=18	=18
2G	8BB-	8.b-
.	16C	.
.	16D	16a
.	8.E-	8g
2A	.	4cc
.	16D	.
.	8C	.
.	4F	8a
.	.	[4dd
.	8D	.
=19	=19	=19
1G	4.G	8dd]
.	.	16bn
.	.	16cc
.	.	8dd
.	16En	8ee
.	16F	.
.	8G	8dd
.	8A	8cc
.	8G	8b
.	8F	8a
=20	=20	=20
1r	8E	8g
.	8D	16a
.	.	16b
.	8C	8cc
.	16D	8b
.	16E	.
.	8F	8a
.	8E	8g
.	8D	8f#
.	8C	16e
.	.	16f#
=21	=21	=21
1G	8BB	4.g
.	16AA	.
.	16BB	.
.	4.C	.
.	.	32fn
.	.	32e
.	.	32d
.	.	32c
.	.	4.d
.	32BB-	.
.	32AA	.
.	32GG	.
.	32FF	.
.	[4GG	.
.	.	8d
=22	=22	=22
2G	8GG]	4.g
.	8GG	.
.	4.C	.
.	.	8G
2G	.	4g
.	8CC	.
.	4C	8r
.	.	16g
.	.	16a
=23	=23	=23
2G	8r	8b-
.	16C	8cc
.	16D	.
.	8E-	8b-
.	8F	8a
2B-	8E-	16b-
.	.	16cc
.	8D	16b-
.	.	16a
.	16E-	8g
.	16F	.
.	16E-	8g
.	16D	.
=24	=24	=24
2A	8C	16a
.	.	16b-
.	8C	16a
.	.	16g
.	16D	8f
.	16E	.
.	16D	8f
.	16C	.
2G	8BB-	16g
.	.	16a
.	8BB-	16g
.	.	16f
.	16C	8e
.	16D	.
.	16C	8e
.	16BB-	.
=25	=25	=25
1F	8AA	4.f
.	8AA	.
.	4.BB-	.
.	.	8f
.	.	16f
.	.	16g
.	8BB-	16f
.	.	16e
.	16BB-	8d
.	16C	.
.	16BB-	8dd
.	16AA	.
=26	=26	=26
1r	8GG	16dd
.	.	16ee
.	8G	16dd
.	.	16cc
.	16G	16bn
.	16A	16cc
.	16G	16b
.	16F	16a
.	16E	4g
.	16F	.
.	16E	.
.	16D	.
.	4C	8r
.	.	8g
=27	=27	=27
1G	8r	16dd
.	.	16ee
.	8C	16cc
.	.	16dd
.	16G	[4b
.	16A	.
.	16F	.
.	16G	.
.	[4E	16b]
.	.	16cc
.	.	16a
.	.	16b
.	16E]	[4g
.	16F	.
.	16D	.
.	16E	.
=28	=28	=28
2E	[4C	16g]
.	.	16a
.	.	16f
.	.	16g
.	16C]	4e
.	16D	.
.	16BB-	.
.	16C	.
2C	4AA	8r
.	.	16e
.	.	16f
.	8r	8g
.	16AA	8a
.	16BB-	.
=29	=29	=29
2E	8C	8g
.	8D	16f
.	.	16g
.	8C	4.a
.	16BB-	.
.	16C	.
2F	4.D	.
.	.	16g
.	.	16a
.	.	[4b-
.	16C	.
.	16D	.
=30	=30	=30
2G	4.E-	8b-]
.	.	16a
.	.	16b-
.	.	16cc
.	.	16dd
.	16D	16b-
.	16E-	16cc
2A	16F	16a
.	16G	16b-
.	16E-	16g
.	16F	16a
.	16D	[4f
.	16E-	.
.	16C	.
.	16D	.
=31	=31	=31
1G	4.BB-	8f]
.	.	16e
.	.	16f
.	.	[4g
.	16AA	.
.	16BB-	.
.	[4C	16g]
.	.	16a
.	.	16f
.	.	16g
.	16C]	16e
.	16D	16f
.	16BB-	16d
.	16C	16e
=32	=32	=32
1r	16AA	4c
.	16BB-	.
.	16GG	.
.	16AA	.
.	4FF	16cc
.	.	16dd
.	.	16bn
.	.	16cc
.	16F	16a
.	16G	16b
.	16E	16g
.	16F	16a
.	16D	16f
.	16E	16g
.	16C	16e
.	16D	16f
=33	=33	=33
1G	16BB-	[4d
.	16C	.
.	16AA	.
.	16BB-	.
.	[4GG	16d]
.	.	16d
.	.	16e
.	.	16f
.	16GG]	[4g
.	16GG	.
.	16AA	.
.	16BB-	.
.	[4C	16g]
.	.	16a
.	.	16f
.	.	16g
=34	=34	=34
2c	16C]	4e
.	16D	.
.	16BB-	.
.	16C	.
.	4AA	16f#
.	.	16g
.	.	16e
.	.	16f#
2B	16BBn	4d#
.	16C	.
.	16AA	.
.	16BB	.
.	4GG#	16e
.	.	16fn
.	.	16dn
.	.	16e
=35	=35	=35
2A	16AA	4c
.	16BB-	.
.	16GGn	.
.	16AA	.
.	4FF	16d
.	.	16e
.	.	16c
.	.	16d
2B	16GG	16Bn
.	16AA	16c
.	16FF	16d
.	16GG	16B
.	16EE	[4e
.	16FF	.
.	16GG	.
.	16EE	.
=36	=36	=36
2c	[4AA	16e]
.	.	16f
.	.	16d
.	.	16e
.	16AA]	[4c
.	16BB-	.
.	16GG	.
.	16AA	.
2A	[4FF	16c]
.	.	16c
.	.	16d
.	.	16e
.	16FF]	8f
.	16FF	.
.	16GG	16e
.	16AA	16f#
=37	=37	=37
1G	8BB-	4.g
.	16AA	.
.	16BBn	.
.	4.C	.
.	.	8g
.	.	16g
.	.	16g
.	8C	16a
.	.	16b
.	16C	[4cc
.	16C	.
.	16D	.
.	16E	.
=38	=38	=38
1r	[4F	16cc]
.	.	16dd
.	.	16b
.	.	16cc
.	16F]	[4a
.	16G	.
.	16E	.
.	16F	.
.	[4D	16a]
.	.	16a
.	.	16b
.	.	16cc
.	16D]	[4dd
.	16D	.
.	16E	.
.	16F	.
=39	=39	=39
1G	[4G	16dd]
.	.	16ee
.	.	16cc
.	.	16dd
.	16G]	[4b
.	16A	.
.	16F	.
.	16G	.
.	[4E	16b]
.	.	16b
.	.	16cc
.	.	16dd
.	16E]	[4ee
.	16E	.
.	16F	.
.	16G	.
=40	=40	=40
2c	4.A	8ee]
.	.	8ee
.	.	16ff
.	.	16gg
.	8A	16ee
.	.	16ff
2G	16B-	4dd
.	16c	.
.	16A	.
.	16B-	.
.	4G	16gg
.	.	16aa
.	.	16ff
.	.	16gg
=41	=41	=41
2A	16c	4ee
.	16d	.
.	16B-	.
.	16c	.
.	4A	8r
.	.	16e
.	.	16f
2E	8r	8g
.	16AA	8a
.	16BB-	.
.	8C	8g
.	8D	8f#
=42	=42	=42
2G	8C	4g
.	8BBn	.
.	4C	8r
.	.	8G
2G	8r	4.g
.	8CC	.
.	[4C	.
.	.	8g
=43	=43	=43
2.E	8C]	8g
.	8C	16e
.	.	16fn
.	8C	8g
.	16AA	16f
.	16BB-	16g
.	8C	8.a
.	16BB-	.
.	16C	16g
4F#	8.D	8.f#
.	16C	16e
=44	=44	=44
1G	8.BBn	8d
.	.	[8dd
.	16AA	.
.	8GG	16dd]
.	.	16cc
.	[8G	16b
.	.	16a
.	16G]	16b
.	16F	16a
.	16E	16g
.	16D	16fn
.	16E	8g
.	16D	.
.	16C	[8gg
.	16BB-	.
=45	=45	=45
1r	8C	16gg]
.	.	16ff
.	[8c	16ee
.	.	16dd
.	16c]	16ee
.	16Bn	16dd
.	16A	16cc
.	16G	16b
.	16A	8cc
.	16G	.
.	16F	[8cc
.	16E	.
.	8F	16cc]
.	.	16b
.	[8F	16a
.	.	16g
=46	=46	=46
1F	16F]	16a
.	16E	16g
.	16D	16f
.	16C	16e
.	16D	8f
.	16C	.
.	16BB-	[8f
.	16AA	.
.	8BB-	16f]
.	.	16e
.	[8BB-	16d
.	.	16c
.	16BB-]	8d
.	16AA	.
.	16GG	8d
.	16FF	.
=47	=47	=47
2E	8GG	16e
.	.	16d
.	8GG	16c
.	.	16Bn
.	16AA	8c
.	16GG	.
.	16FF	8c
.	16EE	.
2D	8FF	16d
.	.	16e
.	8FF	16d
.	.	16c
.	16GG	8B
.	16AA	.
.	16GG	[8B
.	16FF	.
=48	=48	=48
2E	8EE	16B]
.	.	16c
.	[8EE	16B
.	.	16A
.	16EE]	4.G
.	16FF	.
.	16EE	.
.	16DD	.
2G	4.CC	.
.	.	8g
.	.	16g
.	.	16a
.	8C	16g
.	.	16f
=49	=49	=49
2E	16C	16g
.	16D	16f
.	16C	16e
.	16BB-	16d
.	16C	8c
.	16BB-	.
.	16AA	8c
.	16GG	.
2D	8FF	16d
.	.	16e
.	8FF	16d
.	.	16c
.	16GG	8Bn
.	16AA	.
.	16GG	8B
.	16FF	.
=50	=50	=50
[1C	8EE	[4c
.	8EE	.
.	[4FF	16c]
.	.	16c
.	.	16B
.	.	16A
.	16FF]	4.G
.	16FF	.
.	16EE	.
.	16DD	.
.	[4CC	.
.	.	8G
!! Final ad placitum
=51	=51	=51
1C_	8CC]	8G
.	8CC	8g
.	8CC	16g
.	.	16a
.	8C	16g
.	.	16f
.	16C	16e
.	16D	16f
.	16C	16e
.	16BB-	16d
.	16AA	8c
.	16BB-	.
.	16AA	8cc
.	16GG	.
*	*	*^
=52	=52	=52	=52
1C_	4.FF	8r	16cc
.	.	.	16dd
.	.	8c	16cc
.	.	.	16b-
.	.	16c	16a
.	.	16d	16b-
.	8FF	16c	16a
.	.	16B-	16g
.	16FF	4A	4f
.	16GG	.	.
.	16AA	.	.
.	16FF	.	.
.	16C	4G	4e
.	16GG	.	.
.	16CC	.	.
.	16C	.	.
=53	=53	=53	=53
1C_	4FF	16A	16f
.	.	16B	16g
.	.	16c	16a
.	.	16A	16f
.	4EE	16r	8.g
.	.	16c	.
.	.	8G	.
.	.	.	16g
.	4.FF	16A	16f
.	.	16G	16e
.	.	16A	16f
.	.	16B	16g
.	.	8c	8a
.	16EE	8d	16g
.	16DD	.	16f
=54	=54	=54	=54
1C_	[1CC	16e	16g
.	.	16d	16f
.	.	16c	16e
.	.	16B	16d
.	.	16c	8e
.	.	16B-	.
.	.	16A	4f
.	.	16B-	.
.	.	4.G	.
.	.	.	8f
.	.	.	16e
.	.	.	16f
.	.	8F	8d
=55	=55	=55	=55
1C;]	1CC;]	1G;	1e;
==	==	==	==
*-	*-	*-	*-
!!!CDT: 1621///-1674//
!!!OCY: Deutschland
!!!ODT: <1674
!!!AFR: organ chorale
!!!AST: polyphony
!!!AMT: simple quadruple
!!!AIN: organ
!!!YEP: David Huron and Denis Collins
!!!YEN: Canada
!!!EEV: 1.0
!!!RDT: 1995 April 29
!!!YED: 1995 August 31
